src/activities/smallnumbers/resource/dice9.svg

<?xml version="1.0" encoding="UTF-8" standalone="no"?>
<!-- Created with Inkscape (http://www.inkscape.org/) -->

<svg
   xmlns:dc="http://purl.org/dc/elements/1.1/"
   xmlns:cc="http://creativecommons.org/ns#"
   xmlns:rdf="http://www.w3.org/1999/02/22-rdf-syntax-ns#"
   xmlns:svg="http://www.w3.org/2000/svg"
   xmlns="http://www.w3.org/2000/svg"
   xmlns:sodipodi="http://sodipodi.sourceforge.net/DTD/sodipodi-0.dtd"
   xmlns:inkscape="http://www.inkscape.org/namespaces/inkscape"
   width="97.363853"
   height="98.645958"
   id="svg5070"
   sodipodi:version="0.32"
   inkscape:version="0.91 r13725"
   sodipodi:docname="dice9.svg"
   inkscape:export-filename="/home/franck/Gcompris/gartoon/level9.png"
   inkscape:export-xdpi="8.5762272"
   inkscape:export-ydpi="8.5762272"
   inkscape:output_extension="org.inkscape.output.svg.inkscape"
   version="1.0">
  <defs
     id="defs3" />
  <sodipodi:namedview
     inkscape:document-units="px"
     id="base"
     pagecolor="#ffffff"
     bordercolor="#666666"
     borderopacity="1.0"
     inkscape:pageopacity="0.0"
     inkscape:pageshadow="2"
     inkscape:zoom="1.7949557"
     inkscape:cx="48.474939"
     inkscape:cy="69.273689"
     inkscape:current-layer="g16273"
     inkscape:window-width="936"
     inkscape:window-height="1053"
     inkscape:window-x="940"
     inkscape:window-y="0"
     showgrid="false"
     fit-margin-top="0"
     fit-margin-left="0"
     fit-margin-right="0"
     fit-margin-bottom="0"
     inkscape:window-maximized="0" />
  <metadata
     id="metadata4">
    <rdf:RDF>
      <cc:Work
         rdf:about="">
        <dc:format>image/svg+xml</dc:format>
        <dc:type
           rdf:resource="http://purl.org/dc/dcmitype/StillImage" />
        <dc:title></dc:title>
        <dc:date>2015</dc:date>
        <dc:creator>
          <cc:Agent>
            <dc:title>Timothée Giet</dc:title>
          </cc:Agent>
        </dc:creator>
        <cc:license
           rdf:resource="http://creativecommons.org/licenses/by-sa/4.0/" />
      </cc:Work>
      <cc:License
         rdf:about="http://creativecommons.org/licenses/by-sa/4.0/">
        <cc:permits
           rdf:resource="http://creativecommons.org/ns#Reproduction" />
        <cc:permits
           rdf:resource="http://creativecommons.org/ns#Distribution" />
        <cc:requires
           rdf:resource="http://creativecommons.org/ns#Notice" />
        <cc:requires
           rdf:resource="http://creativecommons.org/ns#Attribution" />
        <cc:permits
           rdf:resource="http://creativecommons.org/ns#DerivativeWorks" />
        <cc:requires
           rdf:resource="http://creativecommons.org/ns#ShareAlike" />
      </cc:License>
    </rdf:RDF>
  </metadata>
  <g
     inkscape:label="Layer 1"
     inkscape:groupmode="layer"
     id="layer1"
     transform="translate(-12.486046,-15.094728)">
    <g
       id="g16273"
       transform="matrix(0.1430576,0,0,0.1477225,11.815759,-21.314019)">
      <path
         style="fill:#991919;fill-opacity:1;fill-rule:evenodd;stroke:none;stroke-width:0.14504871pt;stroke-linecap:butt;stroke-linejoin:miter;stroke-opacity:1"
         d="m 48.44966,426.27346 c 0,0 81.76233,-99.79145 158.39766,-144.96257 47.56167,-28.03424 111.50081,-39.75314 167.22765,-31.7537 100.5199,14.42937 242.39461,69.23995 242.39461,69.23995 39.87289,11.04475 73.05162,34.12555 67.57865,90.61724 -9.37713,96.7878 -28.7761,168.66415 -56.61565,257.89256 -11.85923,38.00994 -27.63867,78.67315 -39.11516,107.00454 -13.39675,33.07181 -30.89182,62.43548 -41.8748,85.89575 -16.86807,36.031 -64.41802,53.884 -106.33711,53.41657 C 378.19869,912.93352 258.61356,881.60119 164.11839,836.01531 121.53287,815.4714 91.74578,790.05276 79.277494,756.42622 50.952414,680.03449 5.381965,615.86834 5.3191791,532.2512 5.2848783,486.56205 23.293373,459.40776 48.44966,426.27346 Z"
         id="rect5098"
         sodipodi:nodetypes="csscssssssssc"
         inkscape:connector-curvature="0" />
      <path
         style="fill:#e82727;fill-opacity:1;fill-rule:evenodd;stroke:none"
         d="m 356.29994,277.35697 c 101.90649,10.95747 157.52403,38.13849 242.586,65.99636 44.23773,14.48789 81.7118,44.97086 37.71294,118.00208 L 514.68484,663.71354 c -26.57335,44.47742 -101.60979,53.27443 -148.98411,40.50951 L 105.06626,608.6304 C 57.69193,595.86548 10.056537,532.77402 38.006461,488.44664 77.458038,425.87813 142.58609,362.62968 204.89645,308.71659 242.78433,275.93472 307.96715,272.16 356.29994,277.35697 Z"
         id="rect5076"
         sodipodi:nodetypes="csscccsss"
         inkscape:connector-curvature="0" />
      <path
         style="fill:#c21919;fill-opacity:1;fill-rule:evenodd;stroke:none"
         d="M 378.10663,895.65904 C 292.09688,879.86923 234.87844,848.76666 167.6121,819.45544 130.50324,803.28526 99.848453,765.1189 91.394725,735.08099 L 59.230841,643.35055 C 43.765518,599.24389 70.069623,600.48433 116.76016,619.07031 l 255.50132,92.1893 c 39.81863,11.88636 73.95694,39.68723 74.00243,86.75625 0.021,21.57145 -0.33713,37.35974 -3.67013,66.58176 -2.20661,19.34607 -22.12251,38.83891 -64.48715,31.06142 z"
         id="path6555"
         sodipodi:nodetypes="cscsccsss"
         inkscape:connector-curvature="0" />
      <path
         style="fill:#c21919;fill-opacity:1;fill-rule:evenodd;stroke:none"
         d="m 571.47089,763.76776 c -11.75465,23.69526 -24.29716,59.80341 -40.4282,88.59259 -22.68105,40.47908 -68.43286,47.51545 -66.28016,19.38683 l 5.14741,-67.25875 c 3.59183,-46.93305 29.52912,-99.21549 44.46077,-123.12329 40.59766,-65.00284 90.44424,-137.32244 127.1074,-194.67997 14.43188,-22.57776 17.5084,3.63407 12.39787,21.33542 l -44.76661,155.05805 c -8.46454,29.31863 -27.60554,80.46452 -37.63848,100.68912 z"
         id="path7283"
         sodipodi:nodetypes="sssssssss"
         inkscape:connector-curvature="0" />
      <path
         style="fill:#ecc9c0;fill-opacity:1;fill-rule:evenodd;stroke:none"
         d="M 84.460938 52.796875 C 84.382395 52.803474 84.299134 52.824029 84.210938 52.859375 A 1.3153312 3.6045686 18.429352 0 0 84.195312 52.861328 A 1.3153312 3.6045686 18.429352 0 0 81.986328 56.400391 A 1.3153312 3.6045686 18.429352 0 0 82.341797 59.716797 L 82.535156 59.660156 C 82.59175 59.650145 82.650069 59.632903 82.710938 59.609375 L 82.878906 59.560547 A 1.3153312 3.6045686 18.429352 0 0 83.070312 59.412109 C 83.83242 58.88444 84.73059 57.647774 85.078125 56.5 C 85.646266 54.623651 85.403449 52.717682 84.460938 52.796875 z M 17.460938 58.478516 C 15.801155 58.435234 14.442757 59.284843 14.519531 60.917969 A 4.737374 2.7915077 33.314055 0 0 14.513672 60.976562 A 4.737374 2.7915077 33.314055 0 0 18.330078 65.533203 A 4.737374 2.7915077 33.314055 0 0 22.925781 64.740234 L 22.931641 64.34375 C 22.94285 64.21977 22.944388 64.090657 22.9375 63.957031 L 22.941406 63.623047 A 4.737374 2.7915077 33.314055 0 0 22.824219 63.226562 C 22.437452 61.644742 21.154753 59.78785 19.761719 59.080078 C 19.002873 58.694525 18.202652 58.497857 17.460938 58.478516 z M 51.029297 71.152344 C 49.369481 71.109062 48.011056 71.958605 48.087891 73.591797 A 4.737374 2.7915077 33.314055 0 0 48.082031 73.650391 A 4.737374 2.7915077 33.314055 0 0 51.900391 78.205078 A 4.737374 2.7915077 33.314055 0 0 56.496094 77.414062 L 56.501953 77.003906 C 56.511531 76.891307 56.511135 76.77483 56.505859 76.654297 L 56.511719 76.296875 A 4.737374 2.7915077 33.314055 0 0 56.396484 75.904297 C 56.011357 74.321304 54.726661 72.462489 53.332031 71.753906 C 52.573186 71.368353 51.771012 71.171685 51.029297 71.152344 z M 22.976562 76.707031 C 21.31678 76.66375 19.956429 77.513358 20.033203 79.146484 A 4.737374 2.7915077 33.314055 0 0 20.027344 79.205078 A 4.737374 2.7915077 33.314055 0 0 23.845703 83.759766 A 4.737374 2.7915077 33.314055 0 0 28.441406 82.96875 L 28.447266 82.558594 C 28.456844 82.445995 28.456448 82.329517 28.451172 82.208984 L 28.457031 81.851562 A 4.737374 2.7915077 33.314055 0 0 28.341797 81.458984 C 27.956669 79.875991 26.671974 78.017177 25.277344 77.308594 C 24.518498 76.923041 23.718277 76.726373 22.976562 76.707031 z M 74.898438 79.132812 C 74.823625 79.139098 74.741777 79.157136 74.658203 79.189453 C 74.654036 79.191065 74.650673 79.191681 74.646484 79.193359 A 1.3153312 3.6045686 18.429352 0 0 74.630859 79.195312 A 1.3153312 3.6045686 18.429352 0 0 72.421875 82.736328 A 1.3153312 3.6045686 18.429352 0 0 72.777344 86.052734 L 72.970703 85.996094 C 73.027614 85.986026 73.087207 85.969045 73.148438 85.945312 L 73.314453 85.896484 A 1.3153312 3.6045686 18.429352 0 0 73.503906 85.751953 C 74.266803 85.225774 75.167524 83.985581 75.515625 82.835938 C 76.083766 80.959588 75.840949 79.053619 74.898438 79.132812 z M 52.703125 87.425781 C 51.043343 87.3825 49.684945 88.232108 49.761719 89.865234 A 4.737374 2.7915077 33.314055 0 0 49.755859 89.923828 A 4.737374 2.7915077 33.314055 0 0 53.572266 94.480469 A 4.737374 2.7915077 33.314055 0 0 58.167969 93.6875 L 58.173828 93.289062 C 58.184961 93.165608 58.186495 93.037314 58.179688 92.904297 L 58.183594 92.570312 A 4.737374 2.7915077 33.314055 0 0 58.068359 92.175781 C 57.682615 90.593228 56.397936 88.735622 55.003906 88.027344 C 54.245061 87.641791 53.44484 87.445123 52.703125 87.425781 z "
         transform="matrix(6.9901914,0,0,6.7694495,4.6854344,246.46717)"
         id="path1340" />
      <path
         style="fill:#f2dbd4;fill-opacity:1;fill-rule:evenodd;stroke:none"
         d="M 44.533203 8.71875 C 43.898209 8.7392624 43.300493 8.8307199 42.78125 9.0058594 C 39.392265 10.148958 37.620331 13.481574 40.101562 15.521484 A 3.6704464 6.2179714 80.13257 0 0 40.167969 15.589844 A 3.6704464 6.2179714 80.13257 0 0 48.099609 16.181641 A 3.6704464 6.2179714 80.13257 0 0 51.269531 11.205078 L 50.861328 10.832031 C 50.750974 10.716327 50.629138 10.604656 50.496094 10.496094 L 50.146484 10.177734 A 3.6704464 6.2179714 80.13257 0 0 49.648438 9.9296875 C 48.229919 9.1425655 46.253672 8.6631732 44.533203 8.71875 z M 61.111328 13.984375 C 60.476334 14.004887 59.876665 14.098298 59.357422 14.273438 C 55.965875 15.4174 54.195996 18.753476 56.685547 20.792969 A 3.6704464 6.2179714 80.13257 0 0 56.744141 20.855469 A 3.6704464 6.2179714 80.13257 0 0 64.677734 21.449219 A 3.6704464 6.2179714 80.13257 0 0 67.847656 16.472656 L 67.439453 16.099609 C 67.329099 15.983905 67.207263 15.872234 67.074219 15.763672 L 66.724609 15.445312 A 3.6704464 6.2179714 80.13257 0 0 66.220703 15.195312 C 64.802444 14.409511 62.830192 13.92885 61.111328 13.984375 z M 78.326172 19.910156 C 77.691178 19.930669 77.091509 20.024079 76.572266 20.199219 C 73.180718 21.343182 71.41084 24.679257 73.900391 26.71875 A 3.6704464 6.2179714 80.13257 0 0 73.958984 26.78125 A 3.6704464 6.2179714 80.13257 0 0 81.892578 27.373047 A 3.6704464 6.2179714 80.13257 0 0 85.0625 22.398438 L 84.654297 22.025391 C 84.543942 21.909686 84.422107 21.798015 84.289062 21.689453 L 83.939453 21.371094 A 3.6704464 6.2179714 80.13257 0 0 83.435547 21.121094 C 82.017287 20.335293 80.045035 19.854631 78.326172 19.910156 z M 31.142578 21.228516 C 30.507584 21.249028 29.909868 21.340486 29.390625 21.515625 C 25.998547 22.659767 24.227475 25.997704 26.71875 28.037109 A 3.6704464 6.2179714 80.13257 0 0 26.777344 28.097656 A 3.6704464 6.2179714 80.13257 0 0 34.708984 28.691406 A 3.6704464 6.2179714 80.13257 0 0 37.878906 23.714844 L 37.476562 23.345703 C 37.364289 23.227601 37.239401 23.114578 37.103516 23.003906 L 36.757812 22.6875 A 3.6704464 6.2179714 80.13257 0 0 36.259766 22.439453 C 34.84116 21.651878 32.863597 21.172921 31.142578 21.228516 z M 49.632812 27.810547 C 48.997818 27.831059 48.400102 27.92447 47.880859 28.099609 C 44.488782 29.243751 42.717709 32.581688 45.208984 34.621094 A 3.6704464 6.2179714 80.13257 0 0 45.267578 34.681641 A 3.6704464 6.2179714 80.13257 0 0 53.199219 35.275391 A 3.6704464 6.2179714 80.13257 0 0 56.369141 30.298828 L 55.966797 29.929688 C 55.854524 29.811585 55.729636 29.698563 55.59375 29.587891 L 55.248047 29.271484 A 3.6704464 6.2179714 80.13257 0 0 54.748047 29.023438 C 53.329537 28.236359 51.353228 27.754972 49.632812 27.810547 z M 67.486328 35.054688 C 66.851334 35.0752 66.253618 35.166657 65.734375 35.341797 C 62.327507 36.490927 60.550287 39.853777 63.089844 41.890625 A 3.6704464 6.2179714 80.13257 0 0 63.121094 41.923828 A 3.6704464 6.2179714 80.13257 0 0 71.052734 42.517578 A 3.6704464 6.2179714 80.13257 0 0 74.222656 37.541016 L 73.8125 37.164062 C 73.70526 37.051905 73.58563 36.945287 73.457031 36.839844 L 73.101562 36.513672 A 3.6704464 6.2179714 80.13257 0 0 72.601562 36.265625 C 71.183012 35.478338 69.206997 34.999104 67.486328 35.054688 z M 17.822266 35.53125 C 17.187271 35.551762 16.587602 35.645173 16.068359 35.820312 C 12.676812 36.964275 10.906934 40.300351 13.396484 42.339844 A 3.6704464 6.2179714 80.13257 0 0 13.455078 42.402344 A 3.6704464 6.2179714 80.13257 0 0 21.388672 42.994141 A 3.6704464 6.2179714 80.13257 0 0 24.558594 38.019531 L 24.150391 37.646484 C 24.040036 37.53078 23.918201 37.419109 23.785156 37.310547 L 23.435547 36.992188 A 3.6704464 6.2179714 80.13257 0 0 22.931641 36.742188 C 21.513381 35.956386 19.541129 35.475725 17.822266 35.53125 z M 37.519531 43.613281 C 36.884537 43.633794 36.286821 43.725251 35.767578 43.900391 C 32.377605 45.043823 30.605404 48.378218 33.089844 50.417969 A 3.6704464 6.2179714 80.13257 0 0 33.154297 50.484375 A 3.6704464 6.2179714 80.13257 0 0 41.085938 51.076172 A 3.6704464 6.2179714 80.13257 0 0 44.255859 46.099609 L 43.847656 45.726562 C 43.737302 45.610858 43.615466 45.499187 43.482422 45.390625 L 43.132812 45.072266 A 3.6704464 6.2179714 80.13257 0 0 42.640625 44.828125 C 41.22171 44.038938 39.242507 43.557623 37.519531 43.613281 z M 57.285156 51.513672 C 56.650162 51.534184 56.052446 51.625642 55.533203 51.800781 C 52.126335 52.949912 50.349115 56.314715 52.888672 58.351562 A 3.6704464 6.2179714 80.13257 0 0 52.919922 58.384766 A 3.6704464 6.2179714 80.13257 0 0 60.851562 58.976562 A 3.6704464 6.2179714 80.13257 0 0 64.021484 54.001953 L 63.615234 53.630859 C 63.502911 53.51287 63.378079 53.399628 63.242188 53.289062 L 62.898438 52.974609 A 3.6704464 6.2179714 80.13257 0 0 62.40625 52.728516 C 60.987335 51.939329 59.008132 51.458014 57.285156 51.513672 z "
         transform="matrix(6.9901914,0,0,6.7694495,4.6854344,246.46717)"
         id="path8739" />
    </g>
  </g>
</svg>

<!--Created with Inkscape (http://www.inkscape.org/)--><svg xmlns:dc="http://purl.org/dc/elements/1.1/" xmlns:cc="http://creativecommons.org/ns#" xmlns:rdf="http://www.w3.org/1999/02/22-rdf-syntax-ns#" xmlns="http://www.w3.org/2000/svg" xmlns:sodipodi="http://sodipodi.sourceforge.net/DTD/sodipodi-0.dtd" xmlns:inkscape="http://www.inkscape.org/namespaces/inkscape" width="97.363853" height="98.645958" sodipodi:version="0.32" inkscape:version="0.91 r13725" sodipodi:docname="dice9.svg" inkscape:export-filename="/home/franck/Gcompris/gartoon/level9.png" inkscape:export-xdpi="8.5762272" inkscape:export-ydpi="8.5762272" inkscape:output_extension="org.inkscape.output.svg.inkscape" version="1.0"><sodipodi:namedview inkscape:document-units="px" pagecolor="#ffffff" bordercolor="#666666" borderopacity="1.0" inkscape:pageopacity="0.0" inkscape:pageshadow="2" inkscape:zoom="1.7949557" inkscape:cx="48.474939" inkscape:cy="69.273689" inkscape:current-layer="g16273" inkscape:window-width="936" inkscape:window-height="1053" inkscape:window-x="940" inkscape:window-y="0" showgrid="false" fit-margin-top="0" fit-margin-left="0" fit-margin-right="0" fit-margin-bottom="0" inkscape:window-maximized="0"/><metadata><rdf:RDF><cc:Work><dc:format>image/svg+xml</dc:format><dc:type rdf:resource="http://purl.org/dc/dcmitype/StillImage"/><dc:title/><dc:date>2015</dc:date><dc:creator><cc:Agent><dc:title>Timothée Giet</dc:title></cc:Agent></dc:creator><cc:license rdf:resource="http://creativecommons.org/licenses/by-sa/4.0/"/></cc:Work><cc:License rdf:about="http://creativecommons.org/licenses/by-sa/4.0/"><cc:permits rdf:resource="http://creativecommons.org/ns#Reproduction"/><cc:permits rdf:resource="http://creativecommons.org/ns#Distribution"/><cc:requires rdf:resource="http://creativecommons.org/ns#Notice"/><cc:requires rdf:resource="http://creativecommons.org/ns#Attribution"/><cc:permits rdf:resource="http://creativecommons.org/ns#DerivativeWorks"/><cc:requires rdf:resource="http://creativecommons.org/ns#ShareAlike"/></cc:License></rdf:RDF></metadata><g inkscape:label="Layer 1" inkscape:groupmode="layer"><path style="fill:#991919;fill-opacity:1;fill-rule:evenodd;stroke:none;stroke-width:.14504871pt;stroke-linecap:butt;stroke-linejoin:miter;stroke-opacity:1" d="M48.45 426.273s81.762-99.791 158.397-144.962c47.562-28.034 111.501-39.753 167.228-31.754 100.52 14.43 242.395 69.24 242.395 69.24 39.872 11.045 73.051 34.126 67.578 90.617-9.377 96.788-28.776 168.665-56.615 257.893-11.86 38.01-27.64 78.673-39.116 107.004-13.396 33.072-30.891 62.436-41.874 85.896-16.868 36.031-64.418 53.884-106.337 53.417-61.907-.69-181.492-32.023-275.988-77.609-42.585-20.544-72.372-45.962-84.84-79.589C50.951 680.034 5.381 615.868 5.318 532.251c-.034-45.689 17.974-72.843 43.13-105.978z" sodipodi:nodetypes="csscssssssssc" inkscape:connector-curvature="0" transform="matrix(.14306 0 0 .14772 -.67 -36.409)"/><path style="fill:#e82727;fill-opacity:1;fill-rule:evenodd;stroke:none" d="M356.3 277.357c101.906 10.957 157.524 38.138 242.586 65.996 44.238 14.488 81.712 44.971 37.713 118.002L514.685 663.714c-26.574 44.477-101.61 53.274-148.984 40.509L105.066 608.63c-47.374-12.765-95.01-75.856-67.06-120.183 39.452-62.569 104.58-125.817 166.89-179.73 37.888-32.782 103.071-36.557 151.404-31.36z" sodipodi:nodetypes="csscccsss" inkscape:connector-curvature="0" transform="matrix(.14306 0 0 .14772 -.67 -36.409)"/><path style="fill:#c21919;fill-opacity:1;fill-rule:evenodd;stroke:none" d="M378.107 895.659c-86.01-15.79-143.229-46.892-210.495-76.204-37.109-16.17-67.764-54.336-76.217-84.374l-32.164-91.73c-15.465-44.107 10.839-42.867 57.53-24.28l255.5 92.189c39.82 11.886 73.957 39.687 74.003 86.756.02 21.571-.337 37.36-3.67 66.582-2.207 19.346-22.123 38.839-64.487 31.061z" sodipodi:nodetypes="cscsccsss" inkscape:connector-curvature="0" transform="matrix(.14306 0 0 .14772 -.67 -36.409)"/><path style="fill:#c21919;fill-opacity:1;fill-rule:evenodd;stroke:none" d="M571.47 763.768c-11.754 23.695-24.296 59.803-40.427 88.592-22.681 40.48-68.433 47.516-66.28 19.387l5.147-67.259c3.592-46.933 29.53-99.215 44.46-123.123 40.598-65.003 90.445-137.322 127.108-194.68 14.432-22.578 17.509 3.634 12.398 21.336l-44.767 155.058c-8.464 29.318-27.605 80.464-37.638 100.689z" sodipodi:nodetypes="sssssssss" inkscape:connector-curvature="0" transform="matrix(.14306 0 0 .14772 -.67 -36.409)"/><path style="fill:#ecc9c0;fill-opacity:1;fill-rule:evenodd;stroke:none" d="M84.46 52.797a.87.87 0 0 0-.25.062 1.315 3.605 18.43 0 0-.015.002 1.315 3.605 18.43 0 0-2.209 3.54 1.315 3.605 18.43 0 0 .356 3.316l.193-.057a.947.947 0 0 0 .176-.05l.168-.05a1.315 3.605 18.43 0 0 .191-.148c.762-.528 1.66-1.764 2.008-2.912.568-1.876.325-3.782-.617-3.703zm-67 5.682c-1.659-.044-3.017.806-2.94 2.439a4.737 2.792 33.314 0 0-.006.059 4.737 2.792 33.314 0 0 3.816 4.556 4.737 2.792 33.314 0 0 4.596-.793l.006-.396c.01-.124.012-.253.006-.387l.003-.334a4.737 2.792 33.314 0 0-.117-.396c-.387-1.582-1.67-3.44-3.062-4.147a5.446 5.446 0 0 0-2.301-.601zm33.57 12.673c-1.66-.043-3.019.807-2.942 2.44a4.737 2.792 33.314 0 0-.006.058 4.737 2.792 33.314 0 0 3.818 4.555 4.737 2.792 33.314 0 0 4.596-.79l.006-.411c.01-.113.01-.23.004-.35l.006-.357a4.737 2.792 33.314 0 0-.116-.393c-.385-1.583-1.67-3.442-3.064-4.15a5.454 5.454 0 0 0-2.303-.602zm-28.053 5.555c-1.66-.043-3.02.806-2.944 2.44a4.737 2.792 33.314 0 0-.006.058 4.737 2.792 33.314 0 0 3.819 4.555 4.737 2.792 33.314 0 0 4.595-.791l.006-.41c.01-.113.01-.23.004-.35l.006-.357a4.737 2.792 33.314 0 0-.115-.393c-.385-1.583-1.67-3.442-3.065-4.15a5.446 5.446 0 0 0-2.3-.602zm51.921 2.426a.873.873 0 0 0-.24.056l-.012.004a1.315 3.605 18.43 0 0-.015.002 1.315 3.605 18.43 0 0-2.21 3.541 1.315 3.605 18.43 0 0 .356 3.317l.194-.057a.954.954 0 0 0 .177-.05l.166-.05a1.315 3.605 18.43 0 0 .19-.144c.763-.526 1.664-1.766 2.012-2.916.568-1.876.325-3.782-.618-3.703zm-22.195 8.293c-1.66-.044-3.018.806-2.941 2.44a4.737 2.792 33.314 0 0-.006.058 4.737 2.792 33.314 0 0 3.816 4.556 4.737 2.792 33.314 0 0 4.596-.793l.006-.398c.011-.123.012-.252.006-.385l.004-.334a4.737 2.792 33.314 0 0-.116-.394c-.385-1.583-1.67-3.44-3.064-4.149a5.446 5.446 0 0 0-2.3-.601z"/><path style="fill:#f2dbd4;fill-opacity:1;fill-rule:evenodd;stroke:none" d="M44.533 8.719c-.635.02-1.233.112-1.752.287-3.389 1.143-5.16 4.476-2.68 6.515a3.67 6.218 80.133 0 0 .067.069 3.67 6.218 80.133 0 0 7.932.592 3.67 6.218 80.133 0 0 3.17-4.977l-.409-.373a3.984 3.984 0 0 0-.365-.336l-.35-.318a3.67 6.218 80.133 0 0-.498-.248c-1.418-.787-3.394-1.267-5.115-1.211zm16.578 5.265c-.635.02-1.234.114-1.754.29-3.391 1.143-5.161 4.48-2.671 6.519a3.67 6.218 80.133 0 0 .058.062 3.67 6.218 80.133 0 0 7.934.594 3.67 6.218 80.133 0 0 3.17-4.976l-.409-.373a3.984 3.984 0 0 0-.365-.336l-.35-.319a3.67 6.218 80.133 0 0-.503-.25c-1.419-.785-3.39-1.266-5.11-1.21zm17.215 5.926c-.635.02-1.234.114-1.754.29-3.391 1.143-5.161 4.48-2.672 6.519a3.67 6.218 80.133 0 0 .059.062 3.67 6.218 80.133 0 0 7.934.592 3.67 6.218 80.133 0 0 3.17-4.975l-.409-.373a3.984 3.984 0 0 0-.365-.336l-.35-.318a3.67 6.218 80.133 0 0-.503-.25c-1.419-.786-3.391-1.266-5.11-1.21zM31.143 21.23c-.635.02-1.233.111-1.752.287-3.392 1.144-5.164 4.482-2.672 6.521a3.67 6.218 80.133 0 0 .058.06 3.67 6.218 80.133 0 0 7.932.594 3.67 6.218 80.133 0 0 3.17-4.976l-.402-.37a3.985 3.985 0 0 0-.373-.341l-.346-.317a3.67 6.218 80.133 0 0-.498-.248c-1.419-.787-3.396-1.266-5.117-1.21zm18.49 6.582c-.635.02-1.233.113-1.752.289-3.392 1.144-5.163 4.482-2.672 6.521a3.67 6.218 80.133 0 0 .059.06 3.67 6.218 80.133 0 0 7.931.594 3.67 6.218 80.133 0 0 3.17-4.976l-.402-.37a3.984 3.984 0 0 0-.373-.341l-.346-.317a3.67 6.218 80.133 0 0-.5-.248c-1.418-.787-3.395-1.268-5.115-1.212zm17.853 7.244c-.635.02-1.232.112-1.752.287-3.406 1.149-5.184 4.512-2.644 6.549a3.67 6.218 80.133 0 0 .031.033 3.67 6.218 80.133 0 0 7.932.594 3.67 6.218 80.133 0 0 3.17-4.977l-.41-.377a3.99 3.99 0 0 0-.356-.324l-.355-.326a3.67 6.218 80.133 0 0-.5-.248c-1.419-.788-3.395-1.267-5.116-1.211zm-49.664.476c-.635.02-1.234.114-1.754.29-3.391 1.143-5.161 4.48-2.672 6.519a3.67 6.218 80.133 0 0 .06.062 3.67 6.218 80.133 0 0 7.933.592 3.67 6.218 80.133 0 0 3.17-4.974l-.409-.374a3.984 3.984 0 0 0-.365-.335l-.35-.319a3.67 6.218 80.133 0 0-.503-.25c-1.419-.786-3.39-1.266-5.11-1.21zm19.698 8.082c-.635.02-1.233.112-1.752.287-3.39 1.144-5.163 4.478-2.678 6.518a3.67 6.218 80.133 0 0 .064.066 3.67 6.218 80.133 0 0 7.932.592 3.67 6.218 80.133 0 0 3.17-4.976l-.408-.373a3.984 3.984 0 0 0-.366-.336l-.35-.319a3.67 6.218 80.133 0 0-.491-.244c-1.42-.79-3.398-1.27-5.121-1.215zm19.765 7.9c-.635.021-1.233.113-1.752.288-3.407 1.149-5.184 4.514-2.644 6.55a3.67 6.218 80.133 0 0 .03.034 3.67 6.218 80.133 0 0 7.933.592 3.67 6.218 80.133 0 0 3.17-4.975l-.407-.371a3.991 3.991 0 0 0-.373-.342l-.344-.314a3.67 6.218 80.133 0 0-.492-.246c-1.419-.79-3.398-1.271-5.12-1.215z"/></g></svg>
